X: 3
T: Dinky's Reel $1(R-136)
I: Dinky's Reel	R-136	A Mix	reel
Z: Transcribed to abc by Mary Lou Knack
R: reel
M: C|
P: A Mixolydian
K: Amix
ed| "A"cdBc ABcd| egfd edBd| "G"gB (3.B.B.B gBaB| gB (3.B.B.B gfed|
"A"cdBc ABcd| egfd edBd| "G"gfge "D"dfed| "E"cdBc "A"A2 :|
e^g| "A"aA (3.A.A.A aAbA| aA (3.A.A.A agef| "G"gB (3.B.B.B gBaB| gB (3.B.B.B gefg|
"A"aA (3.A.A.A aAbA| aA (3.A.A.A agef| "G"gfge "D"dfed| "E"cdBc "A"A2e^g|
"A"aA (3.A.A.A aAbA| aA (3.A.A.A agef| "G"gB (3.B.B.B gBaB| gB (3.B.B.B gefg|
"A"aA (3.A.A.A "G"gA (3.A.A.A| "D"fA (3.A.A.A "A"e2ef| "G"gfge "D"dfed| "E"cdBc "A"A2|]

#include "LeftHeader.h"
% ---------- set 56 ----------
% Redwing (D) / Redwing (G) / Snow Deer (C)
%%text Set 56
%%vskip -1cm
%%scale .75
$SmallLMargin
$SmallRMargin
